X:206
T: Vogelhochzeit
N: A0251
O: Europa, Mitteleuropa, Deutschland
N: Hainhofer Lautenbuch II Bl 131 (Hs. in fol 1604)
R: Romanze, Ballade, Lied
M: 3/2
L: 1/4
K: D
G2 | d4d2 | d4G2 | d6 | d4
G2 | A4B2 | =c4A2 | G3FGA | G4
AB | =c4c2 | =c4B2 | =c4c2 | =c4
B2 | A4=c2 | B4A2 | D3CDE | D4

@@@ Tune index: 206
